X:17
T:Alleluia, Wedding Verse
M:3/4
L:1/4
K:F
V:1 clef=treble
[V:1] z (F G) | A3 | (G F E) | (E D2 -  | D2 ) A | B2 B | A2 A |
w:  Oh, | God | is | love. | _ If | God loved | us, we |
%
[V:1] G G c | B B A | A G2 - | G3 - | G3  | z2 ||
w: al-so must | love one an-|o-ther. | _ | _ | . ||